polaris-icons/icons/newicons/AddMajor.svg

<svg width="20" height="20" viewBox="0 0 20 20" fill="none" xmlns="http://www.w3.org/2000/svg">
<path d="M10.75 5C10.75 4.58579 10.4142 4.25 10 4.25C9.58579 4.25 9.25 4.58579 9.25 5V9.25H5C4.58579 9.25 4.25 9.58579 4.25 10C4.25 10.4142 4.58579 10.75 5 10.75H9.25V15C9.25 15.4142 9.58579 15.75 10 15.75C10.4142 15.75 10.75 15.4142 10.75 15V10.75H15C15.4142 10.75 15.75 10.4142 15.75 10C15.75 9.58579 15.4142 9.25 15 9.25H10.75V5Z" fill="black"/>
</svg>

<svg viewBox="0 0 20 20" fill="none" xmlns="http://www.w3.org/2000/svg"><path d="M10.75 5a.75.75 0 0 0-1.5 0v4.25h-4.25a.75.75 0 0 0 0 1.5h4.25v4.25a.75.75 0 0 0 1.5 0v-4.25h4.25a.75.75 0 0 0 0-1.5h-4.25v-4.25Z" fill="#5C5F62"/></svg>
